icons/1_Primary/Forward Email.svg

<svg width="1024" height="1024" fill="none" xmlns="http://www.w3.org/2000/svg"><g clip-path="url(#a)"><path d="M512 1024c282.77 0 512-229.23 512-512S794.77 0 512 0 0 229.23 0 512s229.23 512 512 512Z" fill="#9ABEFF"/><path d="M616.57 421.39a5.551 5.551 0 0 1-10.984.968 5.545 5.545 0 0 1 2.258-5.671 5.545 5.545 0 0 1 3.026-.997 5.724 5.724 0 0 1 5.7 5.7Zm106 119.06c-.07 1-.88 7.56-2.27 17.88v.79a250.652 250.652 0 0 1-7.58 51.61l.09-.58-.28 1.3.19-.73c-11.49 74.55-30.86 181.56-46.43 181.64-32.53.15-16.27-44-16.27-44s-50.22 14.5-136.88 15.06h-2.33C424.17 762.86 374 748.36 374 748.36s16.26 44.16-16.27 44c-15.76-.08-35.42-109.69-46.85-184.32a251.327 251.327 0 0 1-6.88-46.93c-1.63-11.92-2.57-19.53-2.65-20.66-5.87-84.57-8.91-292.44 209.46-308.71a7.384 7.384 0 0 1 1.16-.1h.12c.335.013.669.047 1 .1C731.54 248 728.49 455.88 722.62 540.45h-.05Zm-245.79-51a5.078 5.078 0 0 0 .89 2.88c.4.59 10 14.4 34 14.4 21.54 0 33.19-13.4 33.67-14a5.094 5.094 0 0 0-.398-7.348 5.082 5.082 0 0 0-5.767-.596 5.09 5.09 0 0 0-1.555 1.324c-.09.1-9.26 10.4-25.95 10.4-17.81 0-24.91-9-25.62-10a5.094 5.094 0 0 0-5.699-1.972 5.09 5.09 0 0 0-3.581 4.852l.01.06ZM439.42 523a15.042 15.042 0 0 0-3.94 1.91c-.4.27-.79.57-1.17.87a15.407 15.407 0 0 0-2.05 2.06c-.31.37-.6.76-.87 1.17a15.096 15.096 0 0 0-1.4 2.56 14.816 14.816 0 0 0-1.19 5.84v86.32l31.4 18.59c10.86-3.68 16.58-7.74 19.81-2.88 4.73 7.11-1 8.14-4.32 12l36.89 21.85 36.26-21.47v-.05c-3.22-4.18-9.43-5.06-4.58-12.37 3.29-4.95 9.15-.66 20.36 3.07l31.55-18.69v-86.46a15.111 15.111 0 0 0-15.08-15H443.88a14.856 14.856 0 0 0-4.46.68ZM567 643.2c10.64 3.21 25.68 5.43 47.08-.21v-27.57L567 643.2Zm46.13-29.46c-2-1.75-7.05-5.83-14-11.28l-1-.82v21l15-8.9Zm-202 1.67v27.81c21.33 5.46 36.26 3.06 46.79-.19l-46.79-27.62Zm15.8 7.13v-20.78l-.89.7-.23.2C419 608 414 612 412 613.75l14.93 8.79Zm-7.35-173.71a19.45 19.45 0 0 0 19.098-23.233 19.448 19.448 0 0 0-35.249-7.025 19.45 19.45 0 0 0-3.279 10.808 19.579 19.579 0 0 0 19.38 19.46l.05-.01Zm194.49 257.63c-35.81 4.64-71.25-1.82-71.58-11.86-.25-7.6 7-5.43 6.58-11.77-.62-8.56-14.79-4.15-13.8-14.16.81-8.11 14.73-3 15.27-11a8.603 8.603 0 0 0-.73-4.31l-37.23 22-37.9-22.37a8.462 8.462 0 0 0-.92 4.71c.54 8 14.46 2.91 15.27 11 1 10-13.19 5.6-13.81 14.16-.46 6.34 6.84 4.17 6.58 11.77-.33 10-35.2 16.39-70.71 12v6.31a12.428 12.428 0 0 0 12.33 12.38h178.27a12.474 12.474 0 0 0 12.37-12.38v-6.42l.01-.06Zm8.84-277.08a19.43 19.43 0 1 0-19.43 19.45 19.57 19.57 0 0 0 19.43-19.45ZM475.4 597.17a37.002 37.002 0 0 1 22.84-34.184 37.002 37.002 0 0 1 50.449 26.965A37.002 37.002 0 0 1 512.4 634.17a37.184 37.184 0 0 1-37-37.04v.04Zm16.6-11.8s1.36 32.23 20.39 32.23 20.39-32.23 20.39-32.23l-20.39-8.69-20.39 8.69ZM428.06 427.1a5.71 5.71 0 1 0-5.53-5.71 5.74 5.74 0 0 0 5.53 5.71Zm82.51 180.47L525 592.86l-2.58-3.4-11.76 9.69-4.85-3.53-3.37 3 8.07 9 .06-.05Z" fill="#fff"/></g><defs><clipPath id="a"><path fill="#fff" d="M0 0h1024v1024H0z"/></clipPath></defs></svg>

<svg width="1024" height="1024" viewBox="0 0 1024 1024" fill="none" xmlns="http://www.w3.org/2000/svg">
<g clip-path="url(#clip0_2_2226)">
<path d="M512 1024C794.77 1024 1024 794.77 1024 512C1024 229.23 794.77 0 512 0C229.23 0 0 229.23 0 512C0 794.77 229.23 1024 512 1024Z" fill="#9ABEFF"/>
<path d="M616.57 421.39C616.54 422.474 616.193 423.526 615.572 424.415C614.951 425.305 614.083 425.992 613.075 426.394C612.067 426.795 610.964 426.892 609.902 426.673C608.839 426.454 607.864 425.929 607.097 425.162C606.33 424.395 605.805 423.42 605.586 422.358C605.367 421.295 605.464 420.192 605.866 419.184C606.267 418.176 606.955 417.308 607.844 416.687C608.734 416.066 609.785 415.719 610.87 415.69C612.38 415.695 613.827 416.297 614.894 417.365C615.962 418.433 616.564 419.88 616.57 421.39ZM722.57 540.45C722.5 541.45 721.69 548.01 720.3 558.33V559.12C719.575 576.54 717.035 593.837 712.72 610.73L712.81 610.15L712.53 611.45L712.72 610.72C701.23 685.27 681.86 792.28 666.29 792.36C633.76 792.51 650.02 748.36 650.02 748.36C650.02 748.36 599.8 762.86 513.14 763.42H510.81C424.17 762.86 374 748.36 374 748.36C374 748.36 390.26 792.52 357.73 792.36C341.97 792.28 322.31 682.67 310.88 608.04C307.112 592.648 304.809 576.935 304 561.11C302.37 549.19 301.43 541.58 301.35 540.45C295.48 455.88 292.44 248.01 510.81 231.74C511.193 231.676 511.581 231.643 511.97 231.64H512.09C512.425 231.653 512.759 231.687 513.09 231.74C731.54 248 728.49 455.88 722.62 540.45H722.57ZM476.78 489.45C476.778 490.478 477.089 491.482 477.67 492.33C478.07 492.92 487.67 506.73 511.67 506.73C533.21 506.73 544.86 493.33 545.34 492.73C545.81 492.228 546.175 491.637 546.41 490.991C546.646 490.345 546.748 489.658 546.711 488.971C546.674 488.284 546.498 487.612 546.194 486.995C545.89 486.378 545.464 485.83 544.942 485.382C544.42 484.934 543.813 484.597 543.157 484.391C542.501 484.184 541.81 484.113 541.125 484.181C540.441 484.249 539.778 484.455 539.175 484.786C538.573 485.118 538.043 485.568 537.62 486.11C537.53 486.21 528.36 496.51 511.67 496.51C493.86 496.51 486.76 487.51 486.05 486.51C485.434 485.617 484.549 484.944 483.524 484.589C482.499 484.235 481.387 484.217 480.351 484.538C479.315 484.86 478.409 485.504 477.765 486.377C477.12 487.249 476.772 488.305 476.77 489.39L476.78 489.45ZM439.42 523C438.02 523.441 436.693 524.085 435.48 524.91C435.08 525.18 434.69 525.48 434.31 525.78C433.563 526.401 432.877 527.09 432.26 527.84C431.95 528.21 431.66 528.6 431.39 529.01C430.842 529.816 430.373 530.673 429.99 531.57C429.202 533.416 428.797 535.402 428.8 537.41V623.73L460.2 642.32C471.06 638.64 476.78 634.58 480.01 639.44C484.74 646.55 479.01 647.58 475.69 651.44L512.58 673.29L548.84 651.82V651.77C545.62 647.59 539.41 646.71 544.26 639.4C547.55 634.45 553.41 638.74 564.62 642.47L596.17 623.78V537.32C596.141 533.337 594.54 529.526 591.716 526.717C588.892 523.908 585.073 522.327 581.09 522.32H443.88C442.367 522.318 440.863 522.548 439.42 523ZM567 643.2C577.64 646.41 592.68 648.63 614.08 642.99V615.42L567 643.2ZM613.13 613.74C611.13 611.99 606.08 607.91 599.13 602.46L598.13 601.64V622.64L613.13 613.74ZM411.13 615.41V643.22C432.46 648.68 447.39 646.28 457.92 643.03L411.13 615.41ZM426.93 622.54V601.76L426.04 602.46L425.81 602.66C419 608 414 612 412 613.75L426.93 622.54ZM419.58 448.83C423.427 448.834 427.19 447.696 430.391 445.561C433.592 443.427 436.088 440.39 437.563 436.837C439.039 433.283 439.427 429.372 438.678 425.597C437.93 421.823 436.079 418.356 433.36 415.633C430.641 412.911 427.175 411.057 423.402 410.305C419.628 409.553 415.716 409.937 412.161 411.408C408.606 412.88 405.567 415.373 403.429 418.572C401.291 421.771 400.15 425.532 400.15 429.38C400.181 434.517 402.23 439.437 405.856 443.077C409.481 446.718 414.392 448.787 419.53 448.84L419.58 448.83ZM614.07 706.46C578.26 711.1 542.82 704.64 542.49 694.6C542.24 687 549.49 689.17 549.07 682.83C548.45 674.27 534.28 678.68 535.27 668.67C536.08 660.56 550 665.67 550.54 657.67C550.672 656.194 550.42 654.709 549.81 653.36L512.58 675.36L474.68 652.99C473.925 654.438 473.606 656.074 473.76 657.7C474.3 665.7 488.22 660.61 489.03 668.7C490.03 678.7 475.84 674.3 475.22 682.86C474.76 689.2 482.06 687.03 481.8 694.63C481.47 704.63 446.6 711.02 411.09 706.63V712.94C411.103 716.21 412.404 719.344 414.713 721.662C417.021 723.979 420.149 725.293 423.42 725.32H601.69C604.964 725.293 608.097 723.98 610.411 721.664C612.726 719.348 614.036 716.214 614.06 712.94V706.52L614.07 706.46ZM622.91 429.38C622.906 425.538 621.763 421.783 619.625 418.59C617.488 415.398 614.452 412.91 610.901 411.443C607.351 409.975 603.445 409.593 599.677 410.345C595.909 411.097 592.449 412.95 589.734 415.668C587.018 418.386 585.17 421.848 584.422 425.616C583.673 429.385 584.059 433.291 585.531 436.84C587.002 440.389 589.492 443.422 592.687 445.556C595.882 447.691 599.638 448.83 603.48 448.83C608.625 448.793 613.549 446.731 617.185 443.091C620.822 439.451 622.878 434.525 622.91 429.38ZM475.4 597.17C475.4 589.852 477.57 582.698 481.635 576.614C485.701 570.529 491.48 565.787 498.24 562.986C505.001 560.186 512.441 559.453 519.618 560.881C526.795 562.308 533.388 565.832 538.563 571.007C543.737 576.181 547.261 582.774 548.689 589.951C550.116 597.129 549.384 604.568 546.583 611.329C543.783 618.09 539.04 623.868 532.956 627.934C526.871 632 519.718 634.17 512.4 634.17C502.594 634.122 493.205 630.203 486.275 623.266C479.345 616.329 475.437 606.935 475.4 597.13V597.17ZM492 585.37C492 585.37 493.36 617.6 512.39 617.6C531.42 617.6 532.78 585.37 532.78 585.37L512.39 576.68L492 585.37ZM428.06 427.1C429.196 427.135 430.317 426.831 431.28 426.226C432.242 425.621 433.002 424.742 433.462 423.702C433.922 422.663 434.061 421.509 433.861 420.39C433.661 419.271 433.132 418.237 432.341 417.42C431.55 416.603 430.534 416.041 429.422 415.806C428.309 415.571 427.152 415.673 426.098 416.099C425.044 416.526 424.142 417.257 423.506 418.199C422.87 419.142 422.53 420.253 422.53 421.39C422.536 422.871 423.116 424.293 424.146 425.357C425.177 426.421 426.579 427.045 428.06 427.1ZM510.57 607.57L525 592.86L522.42 589.46L510.66 599.15L505.81 595.62L502.44 598.62L510.51 607.62L510.57 607.57Z" fill="white"/>
</g>
<defs>
<clipPath id="clip0_2_2226">
<rect width="1024" height="1024" fill="white"/>
</clipPath>
</defs>
</svg>
